X:1
T:For He's A Jolly Good Fellow
T:For He's A Jolly Good Fellow
C:Traditional
Z:All Rights Reserved
L:1/8
M:6/8
K:F
V:1 treble 
%%MIDI program 40
%%MIDI control 7 100
%%MIDI control 10 64
V:1
 F/G/ |"F" A2 A AGA |"C7" B3"F" A2 A |"C7" G2 G GFG |"F" A3 F2 F/G/ | A2 A"F7" AGA | %6
w: For *|he's a jol- ly good|fel- low, For|he's a jol- ly good|fel- low, For *|he's a jol- ly good|
"Bb" B2 c"Fdim" d2 d |"F" c2"Gm" B"Am" A2"C7" G |"F" F3- F2 A/B/ | c2 c"Bb" d2 d |"F" c3- c2 A/B/ | %11
w: fel- * low, and|so say all of|us, * And *|so say all of|us, * And *|
 c2 c"Bb" d2 d |"F" c3- c2"C7" B |"F" A2 A AGA |"C7" B3"F" A2 A |"C7" G2 G GFG |"F" A3 F2 F/G/ | %17
w: so say all of|us, * For|he's a jol- ly good|fel- low, For|he's a jol- ly good|fel- low, For *|
 A2 A"F7" AGA |"Bb" B2"F" c"Fdim" d2 d |"F" c2"Gm" B"Am" A2"C7" G |"F" F3- F2 z |] %21
w: he's a jol- ly good|fel- * low, and|so say all of|us.- *|

